icons/op-cost-reports-16.svg

<svg width="16" height="16" viewBox="0 0 16 16" fill="none" xmlns="http://www.w3.org/2000/svg">
<path fill-rule="evenodd" clip-rule="evenodd" d="M1.5 1.75C1.5 1.33579 1.16421 1 0.75 1C0.335786 1 0 1.33579 0 1.75V14.25C0 14.6642 0.335786 15 0.75 15H15.25C15.6642 15 16 14.6642 16 14.25C16 13.8358 15.6642 13.5 15.25 13.5H1.5V1.75Z" fill="#1F2328"/>
<path fill-rule="evenodd" clip-rule="evenodd" d="M3 6.25C3.41421 6.25 3.75 6.58579 3.75 7L3.75 12C3.75 12.4142 3.41421 12.75 3 12.75C2.58579 12.75 2.25 12.4142 2.25 12L2.25 7C2.25 6.58579 2.58579 6.25 3 6.25Z" fill="#1F2328"/>
<path fill-rule="evenodd" clip-rule="evenodd" d="M6 5.25C6.41421 5.25 6.75 5.58579 6.75 6L6.75 12C6.75 12.4142 6.41421 12.75 6 12.75C5.58579 12.75 5.25 12.4142 5.25 12L5.25 6C5.25 5.58579 5.58579 5.25 6 5.25Z" fill="#1F2328"/>
<path fill-rule="evenodd" clip-rule="evenodd" d="M9 6.25C9.41421 6.25 9.75 6.58579 9.75 7V12C9.75 12.4142 9.41421 12.75 9 12.75C8.58579 12.75 8.25 12.4142 8.25 12V7C8.25 6.58579 8.58579 6.25 9 6.25Z" fill="#1F2328"/>
<path fill-rule="evenodd" clip-rule="evenodd" d="M12 2.25C12.4142 2.25 12.75 2.58579 12.75 3V12C12.75 12.4142 12.4142 12.75 12 12.75C11.5858 12.75 11.25 12.4142 11.25 12V3C11.25 2.58579 11.5858 2.25 12 2.25Z" fill="#1F2328"/>
<path fill-rule="evenodd" clip-rule="evenodd" d="M15 4.25C15.4142 4.25 15.75 4.58579 15.75 5V12C15.75 12.4142 15.4142 12.75 15 12.75C14.5858 12.75 14.25 12.4142 14.25 12V5C14.25 4.58579 14.5858 4.25 15 4.25Z" fill="#1F2328"/>
</svg>

<svg xmlns="http://www.w3.org/2000/svg" width="16" height="16" viewBox="0 0 16 16"><path d="M1.5 1.75V13.5h13.75a.75.75 0 0 1 0 1.5H.75a.75.75 0 0 1-.75-.75V1.75a.75.75 0 0 1 1.5 0Z"/><path d="M3 6.25a.75.75 0 0 1 .75.75v5a.75.75 0 0 1-1.5 0V7A.75.75 0 0 1 3 6.25Zm3-1a.75.75 0 0 1 .75.75v6a.75.75 0 0 1-1.5 0V6A.75.75 0 0 1 6 5.25Zm3 1a.75.75 0 0 1 .75.75v5a.75.75 0 0 1-1.5 0V7A.75.75 0 0 1 9 6.25Zm3-4a.75.75 0 0 1 .75.75v9a.75.75 0 0 1-1.5 0V3a.75.75 0 0 1 .75-.75Zm3 2a.75.75 0 0 1 .75.75v7a.75.75 0 0 1-1.5 0V5a.75.75 0 0 1 .75-.75Z"/></svg>
